X:30
T:Royal Fireworks - Overture Theme
C:Handel, G.F.
M:4/4
L:1/8
Q:1/4=112
K:D
|:A2|d4 d2 ef|g2 fe d2 A2|B4 B2 cd|e2 dc B2 G2|
A4 A2 Bc|d2 ef g2 a2|b4 a2 gf|d4 d2:|

